X: 30
T:Bank's Hornpipe. WI.030
T:Storrers,aka. WI.030
M:C|
Q:180
C:Storrers,aka
S:Wm Irwin, 1838 MS, AGG's Transcription
R:Hornpipe
O:England
A:Lake District
Z:vmp.Chris Partington.2005
K:Bb
bf|d2B2 BdcB|A2F2 FGFE|D2c2 cdcB|A2F2 F2bf|!
d2B2 BdcB|ABcd efga|bfdB ceAc|B2B2 B2:|!
|:df|gfef bfdf|g2e2 e2ef|gfga bfdB|G2c2 c2df|!
gfgg bfdf|gfdB c2Bc|dfdf cfcf|d2B2 B2:|]
